X: 1755
T: Sevdim Seni Sevdiceğim
C: Sinan Sipahi
O: Turkey
F: http://compmusic.upf.edu/node/140
N: nikriz--sarki--aksak--sevdim_seni--sinan_sipahi
N: makam= nikriz
N: form= sarki
N: usul= aksak = 9/8
M: 9/8
L: 1/16
K: C _7/8B ^3/4f ^c 
Q: 1/4=240
%%MIDI tuningsystem comma53
=c16 =B2 | d4{e}d2 c2B2 A2G4z2  | e2d2 {e}d2c2 B2A2 G4 A2 | \
w:  ARANAĞME  |   |   | 
B2 A2G2 F2G8z2  | 
w:   | 
=c16 =B2 | d4{e}d2 c2B2 A2G4z2  | e2d2 {e}d2c2 B2A2 G4 A2 | \
w:  ARANAĞME  |   |   | 
B2 A2G2 F2G8z2  | 
w:   | 
G4 G4 A2B2 G4 z2 | {c}d6 c2B2 A2G4z2  | \
w:  Sev dim  se *  ni   |  *  sev di ce *  ğim   | 
d2d6 d2c2 B2A2 B2 | c2 d2e2 d2d8z2  | 
w:  ba na  ben *  den   |  ya kın *  *  sın    | 
G4 G4 A2B2 G4 z2 | {c}d6 c2B2 A2G4z2  | \
w:  Sev dim  se *  ni   |  *  sev di ce *  ğim   | 
d2d6 d2c2 B2A2 B2 | c2 d2e2 d2d8z2  | 
w:  ba na  ben *  den   |  ya kın *  *  sın    | 
=c2c6 c4 c4 =B2 | d4d2 c2B2 A2G4z2  | \
w:  Gü lü  se ven   |  kat la *  nır *  mış   | 
e2d2 d2c2 B2A2 G4 A2 | B2 A2G2 F2G8z2  | 
w:  gön *  lüm  *  ne *  den   |  ya kın *  *  sın    | 
=c2c6 c4 c4 =B2 | d4d2 c2B2 A2G4z2  | \
w:  Gü lü  se ven   |  kat la *  nır *  mış   | 
e2d2 d2c2 B2A2 G4 A2 | B2 A2G2 F2G8z2  | 
w:  gön *  lüm  *  ne *  den   |  ya kın *  *  sın    | 
g2g6 g2f2 g6 | f2 e2f2 g2^2/4f2 e2d4z2  | \
w:  To mur cuk  *  gül  |  ler  *  *  gi bi *  sin   | 
d4 d4 e2f2 d4 z2 | _1/4b2 a2g2 f2g8z2  | 
w:  Tan rı  se *  ni   |  sa kın *  *  sın    | 
g2g6 g2f2 g6 | f2 e2f2 g2^2/4f2 e2d4z2  | \
w:  To mur cuk  *  gül  |  ler  *  *  gi bi *  sin   | 
d4 d4 e2=f2 d6 | =f2 e2d2 c2d8z2  | 
w:  Tan rı  se *  ni   |  sa kın *  *  sın    | 
=c2c6 c4 c4 =B2 | d4d2 c2B2 A2G4z2  | \
w:  Gü lü  se ven   |  kat la *  nır *  mış   | 
e2d2 d2c2 B2A2 G4 A2 | B2 A2G2 F2G8z2  | 
w:  gön *  lüm  *  ne *  den   |  ya kın *  *  sın    | 
=c2c6 c4 c4 =B2 | d4d2 c2B2 A2G4z2  | \
w:  Gü lü  se ven   |  kat la *  nır *  mış   | 
e2d2 d2c2 B2A2 G4 A2 | B2 A2G2 F2G8z2  | 
w:  gön *  lüm  *  ne *  den   |  ya kın *  *  sın    | 
=c16 =B2 | d4{e}d2 c2B2 A2G4z2  | e2d2 {e}d2c2 B2A2 G4 A2 | \
w:  ARANAĞME  |   |   | 
B2 A2G2 F2G8z2  | 
w:   | 
=c16 =B2 | d4{e}d2 c2B2 A2G4z2  | e2d2 {e}d2c2 B2A2 G4 A2 | \
w:  ARANAĞME  |   |   | 
B2 A2G2 F2G8z2  | 
w:   | 
G4 G4 A2B2 G4 z2 | {c}d6 c2B2 A2G4z2  | \
w:  Sev dim  se *  ni   |  *  sev di ce *  ğim   | 
d2d6 d2c2 B2A2 B2 | c2 d2e2 d2d8z2  | 
w:  ba na  ben *  den   |  ya kın *  *  sın    | 
G4 G4 A2B2 G4 z2 | {c}d6 c2B2 A2G4z2  | \
w:  Sev dim  se *  ni   |  *  sev di ce *  ğim   | 
d2d6 d2c2 B2A2 B2 | c2 d2e2 d2d8z2  | 
w:  ba na  ben *  den   |  ya kın *  *  sın    | 
=c4 c4 c2c6 =B2 | d6 c2B2 A2G4z2  | e2d2 d2c2 B2A2 G4 A2 | \
w:  Gül  sen  ba na   |  göz sü ze *  rek   |  sa *  na  *  kaş *  lar   | 
B2 A2G2 F2G8z2  | 
w:  ça tıl *  *  sın    | 
=c4 c4 c2c6 =B2 | d6 c2B2 A2G4z2  | e2d2 d2c2 B2A2 G4 A2 | \
w:  Gül  sen  ba na   |  göz sü ze *  rek   |  sa *  na  *  kaş *  lar   | 
B2 A2G2 F2G8z2  | 
w:  ça tıl *  *  sın    | 
g4 g4 g2f2 g6 | f2 e2f2 g2^2/4f2 e2d4z2  | \
w:  Sev sem  se *  ni   |  yüz  *  *  sü re *  rek   | 
d4 d4 e2f2 d4 z2 | _1/4b2 a2g2 f2g8z2  | 
w:  ba na  taş *  lar   |  a tıl *  *  sın    | 
g4 g4 g2f2 g6 | f2 e2f2 g2^2/4f2 e2d4z2  | \
w:  Sev sem  se *  ni   |  yüz  *  *  sü re *  rek   | 
d4 d4 e2=f2 d6 | =f2 e2d2 c2d8z2  | 
w:  ba na  taş *  lar   |  a tıl *  *  sın    | 
=c2c6 c4 c4 =B2 | d4d2 c2B2 A2G4z2  | \
w:  Gü lü  se ven   |  kat la *  nır *  mış   | 
e2d2 d2c2 B2A2 G4 A2 | B2 A2G2 F2G8z2  | 
w:  gön *  lüm  *  ne *  den   |  ya kın *  *  sın    | 
=c2c6 c4 c4 =B2 | d4d2 c2B2 A2G4z2  | \
w:  Gü lü  se ven   |  kat la *  nır *  mış   | 
e2d2 d2c2 B2A2 G4 A2 | B2 A2G2 F2G8z2  | 
w:  gön *  lüm  *  ne *  den   |  ya kın *  *  sın    | 
|


